X:905
T:Dark Island #2, The
C:Joe Buchanan's Scottish Tome - Page 520.1
I:520 1
Z:Carl Allison
R:Waltz
L:1/8
M:3/4
K:F
D2 | (G2> D2 G2) | (F2> G2 F2) | (D2> C2 B,2) | C4 (FG) |
(G2> G) F2 | (F2 c2>) C2 | (A2> c2) A2 | G4 CD |
(G2> D2 G2) | (F2> G2 F2) | (D2> C2) B,2 | C4 (FG) |
A2> (C2 cA) | G2> (C2 AG) | F6 | F4 (AB) |
c2> C2 C2 | (A2> G F2) | (D B,2>) D2 | C4 (FG) |
(G2> D2 G2) | (F2> G2 F2) | (D2> C2) B,2 | C4 (FG) |
A2> (C2 cA) | G2> (C2 AG) | F6 | F8 |] 

